img/choose-card-img-02.svg

<svg width="48" height="28" viewBox="0 0 48 28" fill="none" xmlns="http://www.w3.org/2000/svg">
<path d="M43.1502 12.2821C42.5747 12.2863 42.0046 12.3961 41.4674 12.6063L35.7271 7.82161C35.8683 7.29999 35.9689 6.75888 35.9689 6.18852C35.9689 2.81022 33.3022 0.0949097 29.9844 0.0949097C26.6666 0.0949097 24 2.81022 24 6.18852C24 7.15375 24.2393 8.05316 24.6271 8.8624L17.6636 17.2423C17.3849 17.1892 17.1022 17.1607 16.8186 17.157C16.3901 17.157 15.9856 17.2301 15.593 17.3374L9.45773 11.0902C9.56545 10.6929 9.63726 10.281 9.63726 9.84468C9.63726 7.144 7.50201 4.9698 4.8497 4.9698C2.19739 4.9698 0.0621338 7.144 0.0621338 9.84468C0.0621338 12.5454 2.19739 14.7196 4.8497 14.7196C5.27819 14.7196 5.68273 14.6464 6.07532 14.5392L12.2106 20.7864C12.0955 21.1913 12.0351 21.6104 12.031 22.0319C12.031 24.7326 14.1663 26.9068 16.8186 26.9068C19.4709 26.9068 21.6062 24.7326 21.6062 22.0319C21.6062 21.4542 21.4913 20.9107 21.3117 20.3964L28.2848 12.0067C28.8282 12.1676 29.3908 12.2821 29.9844 12.2821C30.9291 12.2768 31.8589 12.042 32.6966 11.5972L38.4393 16.3819C38.3942 16.6379 38.3686 16.897 38.3627 17.157C38.3627 19.8577 40.4979 22.0319 43.1502 22.0319C45.8025 22.0319 47.9378 19.8577 47.9378 17.157C47.9378 14.4563 45.8025 12.2821 43.1502 12.2821Z" fill="#00A0C1"/>
</svg>

<svg width="48" height="28" fill="none" xmlns="http://www.w3.org/2000/svg"><path d="M43.15 12.282a4.712 4.712 0 0 0-1.683.324l-5.74-4.784a6.214 6.214 0 0 0 .242-1.633c0-3.379-2.667-6.094-5.985-6.094C26.667.095 24 2.81 24 6.189c0 .965.24 1.864.627 2.673l-6.963 8.38a4.853 4.853 0 0 0-.845-.085c-.429 0-.833.073-1.226.18L9.458 11.09c.107-.397.18-.809.18-1.245 0-2.701-2.136-4.875-4.788-4.875C2.197 4.97.062 7.144.062 9.845c0 2.7 2.135 4.875 4.788 4.875.428 0 .833-.074 1.225-.18l6.136 6.246a4.724 4.724 0 0 0-.18 1.246c0 2.7 2.135 4.875 4.788 4.875 2.652 0 4.787-2.174 4.787-4.875 0-.578-.115-1.121-.294-1.636l6.973-8.39c.543.162 1.106.276 1.7.276a5.851 5.851 0 0 0 2.712-.685l5.742 4.785a5.14 5.14 0 0 0-.076.775c0 2.7 2.135 4.875 4.787 4.875 2.653 0 4.788-2.174 4.788-4.875 0-2.7-2.136-4.875-4.788-4.875Z" fill="#00A0C1"/></svg>
